src/pos-icons/console-line.svg

<svg height="24" viewBox="0 0 24 24" width="24" xmlns="http://www.w3.org/2000/svg"><path d="m13 19v-3h8v3zm-4.5-6-6.03-6h4.24l4.96 4.95c.58.59.58 1.55 0 2.12l-4.93 4.93h-4.24z"/></svg>

<?xml version="1.0" encoding="UTF-8"?><!DOCTYPE svg PUBLIC "-//W3C//DTD SVG 1.1//EN" "http://www.w3.org/Graphics/SVG/1.1/DTD/svg11.dtd"><svg xmlns="http://www.w3.org/2000/svg" xmlns:xlink="http://www.w3.org/1999/xlink" version="1.1" id="mdi-console-line" width="24" height="24" viewBox="0 0 24 24"><path d="M13,19V16H21V19H13M8.5,13L2.47,7H6.71L11.67,11.95C12.25,12.54 12.25,13.5 11.67,14.07L6.74,19H2.5L8.5,13Z" /></svg>
